icons/1_Primary/1Password.svg

<svg width="1024" height="1024" viewBox="0 0 1024 1024" fill="none" xmlns="http://www.w3.org/2000/svg">
<g clip-path="url(#clip0_2_4057)">
<path d="M512 1024C794.77 1024 1024 794.77 1024 512C1024 229.23 794.77 0 512 0C229.23 0 0 229.23 0 512C0 794.77 229.23 1024 512 1024Z" fill="#54688C"/>
<path d="M779.761 464.95C757.691 331.92 633.631 232.62 498.971 240.44C352.591 246.06 234.241 374.17 240.221 520.55C247.831 739.9 497.581 860.55 674.151 730.2C755.691 670.74 798.081 564.19 779.761 464.96V464.95ZM563.561 579.19V648.7C563.461 652.69 563.501 656.76 562.391 660.63C560.281 667.19 554.211 672.44 547.321 673.23C543.071 673.8 538.761 673.68 534.491 673.76C517.791 673.73 501.091 673.83 484.391 673.71C480.131 673.58 475.691 673.62 471.691 671.93C466.241 669.4 461.871 664.26 460.961 658.24C460.281 653.81 460.361 649.31 460.351 644.84V503.44C460.261 500.52 461.521 497.57 463.811 495.73C470.551 490.15 477.401 484.71 484.151 479.14C485.591 478.02 486.781 476.27 486.461 474.36C486.301 472.5 484.791 471.25 483.461 470.15C476.991 464.84 470.451 459.61 463.991 454.29C461.731 452.49 460.321 449.67 460.351 446.77C460.511 420.87 459.981 394.95 460.571 369.06C460.771 366.61 461.091 364.13 462.051 361.85C464.641 355.96 470.351 351.37 476.841 350.73C480.881 350.21 484.971 350.31 489.041 350.24C506.001 350.27 522.971 350.17 539.931 350.29C544.151 350.42 548.561 350.43 552.491 352.2C556.901 354.34 560.551 358.16 562.211 362.8C563.501 366.69 563.431 370.85 563.561 374.91V517.43C563.521 519.95 563.841 522.65 562.641 524.98C561.931 526.63 560.621 527.92 559.221 529C552.801 534.25 546.341 539.45 539.931 544.7C538.521 545.8 537.251 547.38 537.411 549.27C537.411 551.05 538.691 552.42 539.991 553.46C545.251 557.79 550.551 562.05 555.841 566.35C557.911 568.16 560.341 569.66 561.981 571.92C563.451 574.04 563.681 576.68 563.571 579.19H563.561Z" fill="white"/>
</g>
<defs>
<clipPath id="clip0_2_4057">
<rect width="1024" height="1024" fill="white"/>
</clipPath>
</defs>
</svg>

<svg xmlns="http://www.w3.org/2000/svg" width="1024" height="1024" fill="none">
   <g clip-path="url(#a)">
      <path fill="#54688C" d="M512 1024c282.77 0 512-229.23 512-512S794.77 0 512 0 0 229.23 0 512s229.23 512 512 512Z"/>
      <path fill="#fff" d="M779.761 464.95c-22.07-133.03-146.13-232.33-280.79-224.51-146.38 5.62-264.73 133.73-258.75 280.11 7.61 219.35 257.36 340 433.93 209.65 81.54-59.46 123.93-166.01 105.61-265.24v-.01Zm-216.2 114.24v69.51c-.1 3.99-.06 8.06-1.17 11.93-2.11 6.56-8.18 11.81-15.07 12.6-4.25.57-8.56.45-12.83.53-16.7-.03-33.4.07-50.1-.05-4.26-.13-8.7-.09-12.7-1.78-5.45-2.53-9.82-7.67-10.73-13.69-.68-4.43-.6-8.93-.61-13.4v-141.4c-.09-2.92 1.17-5.87 3.46-7.71 6.74-5.58 13.59-11.02 20.34-16.59 1.44-1.12 2.63-2.87 2.31-4.78-.16-1.86-1.67-3.11-3-4.21-6.47-5.31-13.01-10.54-19.47-15.86-2.26-1.8-3.67-4.62-3.64-7.52.16-25.9-.37-51.82.22-77.71.2-2.45.52-4.93 1.48-7.21 2.59-5.89 8.3-10.48 14.79-11.12 4.04-.52 8.13-.42 12.2-.49 16.96.03 33.93-.07 50.89.05 4.22.13 8.63.14 12.56 1.91 4.41 2.14 8.06 5.96 9.72 10.6 1.29 3.89 1.22 8.05 1.35 12.11v142.52c-.04 2.52.28 5.22-.92 7.55-.71 1.65-2.02 2.94-3.42 4.02-6.42 5.25-12.88 10.45-19.29 15.7-1.41 1.1-2.68 2.68-2.52 4.57 0 1.78 1.28 3.15 2.58 4.19 5.26 4.33 10.56 8.59 15.85 12.89 2.07 1.81 4.5 3.31 6.14 5.57 1.47 2.12 1.7 4.76 1.59 7.27h-.01Z"/>
   </g>
   <defs>
      <clipPath id="a">
         <path fill="#fff" d="M0 0h1024v1024H0z"/>
      </clipPath>
   </defs>
</svg>
